icons/characteranimator-filled.svg

<svg width="256" height="256" viewBox="0 0 256 256" fill="none" xmlns="http://www.w3.org/2000/svg">
<path d="M196 0H60C26.8629 0 0 26.8629 0 60V196C0 229.137 26.8629 256 60 256H196C229.137 256 256 229.137 256 196V60C256 26.8629 229.137 0 196 0Z" fill="#00005B"/>
<path d="M124.907 164.015V180.615C124.967 181.087 124.873 181.566 124.639 181.981C124.405 182.395 124.043 182.723 123.607 182.915C120.533 184 117.346 184.738 114.107 185.115C109.925 185.598 105.718 185.831 101.507 185.815C95.505 185.836 89.5242 185.097 83.7074 183.615C78.2678 182.212 73.0746 179.987 68.3074 177.015C63.7269 174.115 59.6977 170.424 56.4074 166.115C52.9662 161.615 50.3584 156.535 48.7074 151.115C46.8183 144.859 45.9075 138.349 46.0074 131.815C46.0074 121.015 48.4074 111.415 53.1074 103.215C57.81 95.0063 64.7918 88.337 73.2074 84.0152C82.8262 79.0996 93.507 76.6268 104.307 76.8152C108.507 76.8152 112.607 77.0152 116.807 77.4152C119.699 77.7504 122.548 78.3872 125.307 79.3152C125.594 79.5357 125.818 79.8267 125.958 80.1597C126.098 80.4927 126.15 80.8563 126.107 81.2152V99.3152C126.107 100.315 125.707 100.615 125.007 100.315C121.961 98.8995 118.728 97.9231 115.407 97.4152C111.503 96.8136 107.558 96.5127 103.607 96.5152C97.1538 96.3757 90.7759 97.9271 85.1074 101.015C80.0686 103.787 75.9367 107.953 73.2074 113.015C70.3288 118.607 68.8855 124.827 69.0074 131.115C68.9212 135.597 69.5975 140.06 71.0074 144.315C72.2142 147.917 74.1169 151.247 76.6074 154.115C78.8438 156.79 81.5562 159.028 84.6074 160.715C87.6377 162.327 90.8648 163.537 94.2074 164.315C97.435 165.212 100.759 165.715 104.107 165.815C107.747 165.848 111.386 165.681 115.007 165.315C117.986 164.938 120.907 164.199 123.707 163.115C124.107 162.815 124.407 162.715 124.707 162.915C124.815 163.075 124.888 163.255 124.923 163.444C124.957 163.634 124.952 163.828 124.907 164.015Z" fill="#9999FF"/>
<path d="M161.907 126.015V182.415C161.907 183.315 161.507 183.715 160.807 183.715H140.707C140.543 183.738 140.375 183.727 140.215 183.683C140.055 183.639 139.905 183.564 139.775 183.461C139.644 183.359 139.535 183.231 139.455 183.086C139.375 182.94 139.325 182.78 139.307 182.615V71.1152C139.307 70.4152 139.707 70.0152 140.607 70.0152H160.907C161.032 69.9924 161.161 69.9953 161.285 70.0236C161.409 70.0519 161.526 70.105 161.629 70.1798C161.731 70.2546 161.818 70.3494 161.883 70.4587C161.948 70.5679 161.99 70.6892 162.007 70.8152V71.1152L162.107 109.115C165.015 107.194 168.136 105.617 171.407 104.415C174.807 103.215 178.707 102.915 183.207 102.915C186.392 102.925 189.558 103.396 192.607 104.315C195.844 105.233 198.845 106.836 201.407 109.015C204.107 111.415 206.007 114.715 207.607 118.815C209.207 122.915 210.007 128.315 210.007 134.815V182.215C210.007 183.215 209.607 183.615 208.707 183.615H189.807C189.623 183.646 189.434 183.64 189.252 183.595C189.071 183.551 188.9 183.471 188.75 183.358C188.6 183.246 188.475 183.105 188.382 182.943C188.289 182.78 188.229 182.601 188.207 182.415V137.015C188.312 134.108 187.801 131.211 186.707 128.515C185.804 126.461 184.351 124.696 182.507 123.415C180.263 122.121 177.695 121.496 175.107 121.615C172.704 121.597 170.312 121.934 168.007 122.615C165.83 123.467 163.778 124.611 161.907 126.015Z" fill="#9999FF"/>
</svg>

<svg xmlns="http://www.w3.org/2000/svg" width="256" height="256" fill="none"><path fill="#00005B" d="M196 0H60C26.863 0 0 26.863 0 60v136c0 33.137 26.863 60 60 60h136c33.137 0 60-26.863 60-60V60c0-33.137-26.863-60-60-60"/><path fill="#99F" d="M124.907 164.015v16.6a2.21 2.21 0 0 1-1.3 2.3 43.7 43.7 0 0 1-9.5 2.2c-4.182.483-8.389.716-12.6.7a71 71 0 0 1-17.8-2.2 55.1 55.1 0 0 1-15.4-6.6 45.8 45.8 0 0 1-11.9-10.9 47.5 47.5 0 0 1-7.7-15 63.4 63.4 0 0 1-2.7-19.3c0-10.8 2.4-20.4 7.1-28.6a48.9 48.9 0 0 1 20.1-19.2 65.8 65.8 0 0 1 31.1-7.2c4.2 0 8.3.2 12.5.6 2.892.335 5.741.972 8.5 1.9a2.08 2.08 0 0 1 .8 1.9v18.1c0 1-.4 1.3-1.1 1a35.5 35.5 0 0 0-9.6-2.9 77 77 0 0 0-11.8-.9 37 37 0 0 0-18.5 4.5 29.9 29.9 0 0 0-11.9 12 37.94 37.94 0 0 0-4.2 18.1 39.6 39.6 0 0 0 2 13.2 29 29 0 0 0 5.6 9.8 28.2 28.2 0 0 0 8 6.6 39.5 39.5 0 0 0 9.6 3.6 41.6 41.6 0 0 0 9.9 1.5c3.64.033 7.279-.134 10.9-.5a37 37 0 0 0 8.7-2.2c.4-.3.7-.4 1-.2a1.4 1.4 0 0 1 .2 1.1m37-38v56.4c0 .9-.4 1.3-1.1 1.3h-20.1a1.22 1.22 0 0 1-.932-.254 1.23 1.23 0 0 1-.468-.846v-111.5c0-.7.4-1.1 1.3-1.1h20.3a.94.94 0 0 1 1.1.8v.3l.1 38a45 45 0 0 1 9.3-4.7c3.4-1.2 7.3-1.5 11.8-1.5 3.185.01 6.351.481 9.4 1.4a23.5 23.5 0 0 1 8.8 4.7c2.7 2.4 4.6 5.7 6.2 9.8s2.4 9.5 2.4 16v47.4c0 1-.4 1.4-1.3 1.4h-18.9a1.37 1.37 0 0 1-1.057-.257 1.37 1.37 0 0 1-.543-.943v-45.4a20.6 20.6 0 0 0-1.5-8.5 12.2 12.2 0 0 0-4.2-5.1 13.57 13.57 0 0 0-7.4-1.8 24.4 24.4 0 0 0-7.1 1 26 26 0 0 0-6.1 3.4"/></svg>
